vendor/shopware/storefront/Resources/app/storefront/dist/assets/icon/solid/arrow-medium-left.svg

<svg xmlns="http://www.w3.org/2000/svg" xmlns:xlink="http://www.w3.org/1999/xlink" width="16" height="16" viewBox="0 0 16 16">
  <defs>
    <path id="icons-small-arrow-medium-left-a" d="M4.70710678,5.29289322 C4.31658249,4.90236893 3.68341751,4.90236893 3.29289322,5.29289322 C2.90236893,5.68341751 2.90236893,6.31658249 3.29289322,6.70710678 L7.29289322,10.7071068 C7.68341751,11.0976311 8.31658249,11.0976311 8.70710678,10.7071068 L12.7071068,6.70710678 C13.0976311,6.31658249 13.0976311,5.68341751 12.7071068,5.29289322 C12.3165825,4.90236893 11.6834175,4.90236893 11.2928932,5.29289322 L8,8.58578644 L4.70710678,5.29289322 Z"/>
  </defs>
  <use fill="#758CA3" fill-rule="evenodd" transform="matrix(0 -1 -1 0 16 16)" xlink:href="#icons-small-arrow-medium-left-a"/>
</svg>

<svg xmlns="http://www.w3.org/2000/svg" xmlns:xlink="http://www.w3.org/1999/xlink" width="16" height="16" viewBox="0 0 16 16"><defs><path id="icons-small-arrow-medium-left-a" d="M4.7071 5.2929c-.3905-.3905-1.0237-.3905-1.4142 0-.3905.3905-.3905 1.0237 0 1.4142l4 4c.3905.3905 1.0237.3905 1.4142 0l4-4c.3905-.3905.3905-1.0237 0-1.4142-.3905-.3905-1.0237-.3905-1.4142 0L8 8.5858l-3.2929-3.293z"/></defs><use fill="#758CA3" fill-rule="evenodd" transform="matrix(0 -1 -1 0 16 16)" xlink:href="#icons-small-arrow-medium-left-a"/></svg>
